X:1
T:He Will Not Leave Me Alone
T:He Will Not Leave Me Alone
T:James Milton Black
T:Mary L. Sherwin, 1914
T:Public Domain Courtesy of the Cyber Hymnal™
T:Public Domain Courtesy of the Cyber Hymnal™
C:James Milton Black
Z:Public Domain
Z:Courtesy of the Cyber Hymnal™
%%score ( 1 2 ) 3
L:1/8
Q:1/4=150
M:6/4
K:G
V:1 treble 
V:2 treble 
V:3 bass 
V:1
 D2 [DG]2 [DA]2 [GB]2 [DA]2 [DG]2 | [DG]2 [DF]2 [DE]2 [DF]6 | D2 [DF]2 [FA]2 [Ac]2 [GB]2 [FA]2 | %3
w: 1.~If thro’ the sha- dows my|path- way should lead,|He will not leave me a-|
w: 2.~When I am wea- ry with|la- bor and care,|He will not leave me a-|
w: 3.~Sa- tan may tempt me to|turn from the way,|He will not leave me a-|
w: 4.~So I will trust Him wher-|ev- er I go,|He will not leave me a-|
 [GB]12 | D2 [DG]2 [DA]2 [GB]2 [DA]2 [DG]2 | [DG]2 [DF]2 [DE]2 [DF]6 | %6
w: lone,|For I have found in my|heart’s deep- est need,|
w: lone;|He will stand by me my|bur- den to share,|
w: lone;|But His rich grace will sus-|tain me each day,|
w: lone;|He is my Friend, and this|one thing I know,|
 [GA]2 [GB]2 [GA]2 [^CG]2 [CF]2 [CE]2 | D6- D4 z2 ||"^Refrain" D2 [Ac]2 [Gc]2 [Fc]2 [Ec]2 [Fc]2 | %9
w: He will not leave me a-|lone. *||
w: He will not leave me a-|lone. *|He will not leave me a-|
w: He will not leave me a-|lone. *||
w: He will not leave me a-|lone. *||
 [GB]6- [GB]4 z2 | [GB]2 [GA]2 [EG]2 [GB]2 [GA]2 [^CG]2 | d12 | %12
w: |||
w: lone, *|He will not leave me a-|lone;|
w: |||
w: |||
 [Gd]2 [G^c]2 [Gd]2 [Ge]2 [Gd]2 [GB]2 | [DG]2 [DA]2 [GB]2 [Gc]6 | %14
w: ||
w: He is my Sav- ior, Re-|deem- er and friend;|
w: ||
w: ||
 [Ec]2 [CE]2 [Ec]2 [DB]2 !fermata![GB]2 [DA]2 | [DG]12 |] %16
w: ||
w: He will not leave me a-|lone.|
w: ||
w: ||
V:2
 D2 x10 | x12 | D2 x10 | x12 | D2 x10 | x12 | x12 | D6- D4 x2 || D2 x10 | x12 | x12 | (F4 G2 A6) | %12
 x12 | x12 | x12 | x12 |] %16
V:3
 [G,B,]2 [G,B,]2 [G,C]2 [G,D]2 [G,C]2 [G,B,]2 | [A,C]2 [A,C]2 [A,C]2 [A,C]6 | %2
w: ~ ~ ~ ~ ~ ~|~ ~ ~ ~|
 [D,F,]2 [D,A,]2 [D,D]2 [D,D]2 [D,D]2 [D,D]2 | [G,D]12 | %4
w: ~ ~ ~ ~ ~ ~|~|
 [G,B,]2 [G,B,]2 [G,C]2 [G,D]2 [G,C]2 [G,B,]2 | [A,C]2 [A,C]2 [A,C]2 [A,C]6 | %6
w: ~ ~ ~ ~ ~ ~|~ ~ ~ ~|
 [A,,^C]2 [A,,C]2 [A,,C]2 [A,,B,]2 [A,,A,]2 [A,,G,]2 | [D,F,]6- [D,F,]4 z2 || %8
w: ~ ~ ~ ~ ~ ~|~ *|
 [D,F,]2 [D,D]2 [D,D]2 [D,D]2 [D,D]2 [D,D][D,D] | [G,D]2 [D,D]2 B,,2 [G,,D]4 z2 | %10
w: ~ ~ ~ ~ ~ nev- er|leave me a- lone,|
 [E,^C]2 [E,C]2 [A,C]2 [A,,C]2 [A,,C]2 [E,A,][E,A,] | [D,A,]2 [D,A,]2 [D,B,]2 [D,C]6 | %12
w: ~ ~ ~ ~ ~ nev- er|leave me a- lone;|
 [G,B,]2 [G,^A,]2 [G,B,]2 [G,C]2 [G,B,]2 [G,D]2 | [G,B,]2 [F,C]2 [=F,D]2 [E,C]6 | %14
w: ||
 [C,G,]2 [C,G,]2 [C,G,]2 [D,G,]2 !fermata![D,D]2 [D,C]2 | [G,,B,]12 |] %16
w: ||

